images/indikatorenset/4948.svg

<?xml version="1.0" standalone="no"?><!DOCTYPE svg PUBLIC "-//W3C//DTD SVG 1.1//EN" "http://www.w3.org/Graphics/SVG/1.1/DTD/svg11.dtd"><svg xmlns:xlink="http://www.w3.org/1999/xlink" version="1.1" class="highcharts-root" style="font-family:arial;font-size:12px;" xmlns="http://www.w3.org/2000/svg" width="485" height="415"><desc>Created with Highstock 5.0.14</desc><defs><clipPath id="highcharts-bm4o7qg-6"><rect x="0" y="0" width="279" height="265" fill="none"></rect></clipPath><clipPath id="highcharts-bm4o7qg-7"><rect x="0" y="0" width="279" height="265" fill="none"></rect></clipPath></defs><rect fill="#fbfbfb" class="highcharts-background" x="0" y="0" width="485" height="415" rx="0" ry="0"></rect><rect fill="none" class="highcharts-plot-background" x="74" y="75" width="279" height="265"></rect><g class="highcharts-pane-group"></g><g class="highcharts-grid highcharts-xaxis-grid "><path fill="none" class="highcharts-grid-line" d="M 108.5 75 L 108.5 340" opacity="1"></path><path fill="none" class="highcharts-grid-line" d="M 143.5 75 L 143.5 340" opacity="1"></path><path fill="none" class="highcharts-grid-line" d="M 178.5 75 L 178.5 340" opacity="1"></path><path fill="none" class="highcharts-grid-line" d="M 213.5 75 L 213.5 340" opacity="1"></path><path fill="none" class="highcharts-grid-line" d="M 247.5 75 L 247.5 340" opacity="1"></path><path fill="none" class="highcharts-grid-line" d="M 282.5 75 L 282.5 340" opacity="1"></path><path fill="none" class="highcharts-grid-line" d="M 317.5 75 L 317.5 340" opacity="1"></path><path fill="none" class="highcharts-grid-line" d="M 352.5 75 L 352.5 340" opacity="1"></path><path fill="none" class="highcharts-grid-line" d="M 73.5 75 L 73.5 340" opacity="1"></path></g><g class="highcharts-grid highcharts-yaxis-grid "><path fill="none" stroke="#B9CFD7" stroke-width="0.5" class="highcharts-grid-line" d="M 74 340.25 L 353 340.25" opacity="1"></path><path fill="none" stroke="#B9CFD7" stroke-width="0.5" class="highcharts-grid-line" d="M 74 274.25 L 353 274.25" opacity="1"></path><path fill="none" stroke="#B9CFD7" stroke-width="0.5" class="highcharts-grid-line" d="M 74 208.25 L 353 208.25" opacity="1"></path><path fill="none" stroke="#B9CFD7" stroke-width="0.5" class="highcharts-grid-line" d="M 74 141.25 L 353 141.25" opacity="1"></path><path fill="none" stroke="#B9CFD7" stroke-width="0.5" class="highcharts-grid-line" d="M 74 74.75 L 353 74.75" opacity="1"></path></g><rect fill="none" class="highcharts-plot-border" x="74" y="75" width="279" height="265"></rect><g class="highcharts-axis highcharts-xaxis "><path fill="none" class="highcharts-tick" stroke="#FFFFFF" stroke-width="1" d="M 108.5 340 L 108.5 350" opacity="1"></path><path fill="none" class="highcharts-tick" stroke="#FFFFFF" stroke-width="1" d="M 143.5 340 L 143.5 350" opacity="1"></path><path fill="none" class="highcharts-tick" stroke="#FFFFFF" stroke-width="1" d="M 178.5 340 L 178.5 350" opacity="1"></path><path fill="none" class="highcharts-tick" stroke="#FFFFFF" stroke-width="1" d="M 213.5 340 L 213.5 350" opacity="1"></path><path fill="none" class="highcharts-tick" stroke="#FFFFFF" stroke-width="1" d="M 247.5 340 L 247.5 350" opacity="1"></path><path fill="none" class="highcharts-tick" stroke="#FFFFFF" stroke-width="1" d="M 282.5 340 L 282.5 350" opacity="1"></path><path fill="none" class="highcharts-tick" stroke="#FFFFFF" stroke-width="1" d="M 317.5 340 L 317.5 350" opacity="1"></path><path fill="none" class="highcharts-tick" stroke="#FFFFFF" stroke-width="1" d="M 353.5 340 L 353.5 350" opacity="1"></path><path fill="none" class="highcharts-tick" stroke="#FFFFFF" stroke-width="1" d="M 73.5 340 L 73.5 350" opacity="1"></path><path fill="none" class="highcharts-axis-line" stroke="#B9CFD7" stroke-width="0.5" d="M 74 340.25 L 353 340.25"></path></g><g class="highcharts-axis highcharts-yaxis "><path fill="none" class="highcharts-axis-line" d="M 74 75 L 74 340"></path></g><g class="highcharts-series-group"><g class="highcharts-series highcharts-series-0 highcharts-column-series highcharts-color-undefined " transform="translate(74,75) scale(1 1)" clip-path="url(#highcharts-bm4o7qg-7)"><rect x="5" y="148" width="25" height="118" fill="#246370" class="highcharts-point"></rect><rect x="40" y="152" width="25" height="114" fill="#246370" class="highcharts-point"></rect><rect x="75" y="155" width="25" height="111" fill="#246370" class="highcharts-point"></rect><rect x="110" y="155" width="25" height="111" fill="#246370" class="highcharts-point"></rect><rect x="144" y="156" width="25" height="110" fill="#246370" class="highcharts-point"></rect><rect x="179" y="151" width="25" height="115" fill="#246370" class="highcharts-point"></rect><rect x="214" y="149" width="25" height="117" fill="#246370" class="highcharts-point"></rect><rect x="249" y="151" width="25" height="115" fill="#246370" class="highcharts-point"></rect></g><g class="highcharts-markers highcharts-series-0 highcharts-column-series highcharts-color-undefined " transform="translate(74,75) scale(1 1)" clip-path="none"></g><g class="highcharts-series highcharts-series-1 highcharts-column-series highcharts-color-undefined " transform="translate(74,75) scale(1 1)" clip-path="url(#highcharts-bm4o7qg-7)"><rect x="5" y="111" width="25" height="37" fill="#D3E2E4" class="highcharts-point"></rect><rect x="40" y="115" width="25" height="37" fill="#D3E2E4" class="highcharts-point"></rect><rect x="75" y="120" width="25" height="35" fill="#D3E2E4" class="highcharts-point"></rect><rect x="110" y="119" width="25" height="36" fill="#D3E2E4" class="highcharts-point"></rect><rect x="144" y="127" width="25" height="29" fill="#D3E2E4" class="highcharts-point"></rect><rect x="179" y="124" width="25" height="27" fill="#D3E2E4" class="highcharts-point"></rect><rect x="214" y="125" width="25" height="24" fill="#D3E2E4" class="highcharts-point"></rect><rect x="249" y="128" width="25" height="23" fill="#D3E2E4" class="highcharts-point"></rect></g><g class="highcharts-markers highcharts-series-1 highcharts-column-series highcharts-color-undefined " transform="translate(74,75) scale(1 1)" clip-path="none"></g><g class="highcharts-series highcharts-series-2 highcharts-column-series highcharts-color-undefined " transform="translate(74,75) scale(1 1)" clip-path="url(#highcharts-bm4o7qg-7)"><rect x="5" y="79" width="25" height="32" fill="#68AB2B" class="highcharts-point"></rect><rect x="40" y="79" width="25" height="36" fill="#68AB2B" class="highcharts-point"></rect><rect x="75" y="84" width="25" height="36" fill="#68AB2B" class="highcharts-point"></rect><rect x="110" y="78" width="25" height="41" fill="#68AB2B" class="highcharts-point"></rect><rect x="144" y="91" width="25" height="36" fill="#68AB2B" class="highcharts-point"></rect><rect x="179" y="88" width="25" height="36" fill="#68AB2B" class="highcharts-point"></rect><rect x="214" y="89" width="25" height="36" fill="#68AB2B" class="highcharts-point"></rect><rect x="249" y="94" width="25" height="34" fill="#68AB2B" class="highcharts-point"></rect></g><g class="highcharts-markers highcharts-series-2 highcharts-column-series highcharts-color-undefined " transform="translate(74,75) scale(1 1)" clip-path="none"></g><g class="highcharts-series highcharts-series-3 highcharts-column-series highcharts-color-undefined " transform="translate(74,75) scale(1 1)" clip-path="url(#highcharts-bm4o7qg-7)"><rect x="5" y="58" width="25" height="21" fill="#662673" class="highcharts-point"></rect><rect x="40" y="60" width="25" height="19" fill="#662673" class="highcharts-point"></rect><rect x="75" y="65" width="25" height="19" fill="#662673" class="highcharts-point"></rect><rect x="110" y="59" width="25" height="19" fill="#662673" class="highcharts-point"></rect><rect x="144" y="68" width="25" height="23" fill="#662673" class="highcharts-point"></rect><rect x="179" y="63" width="25" height="25" fill="#662673" class="highcharts-point"></rect><rect x="214" y="64" width="25" height="25" fill="#662673" class="highcharts-point"></rect><rect x="249" y="68" width="25" height="26" fill="#662673" class="highcharts-point"></rect></g><g class="highcharts-markers highcharts-series-3 highcharts-column-series highcharts-color-undefined " transform="translate(74,75) scale(1 1)" clip-path="none"></g></g><text x="10" text-anchor="start" class="highcharts-title" style="color:#000000;font-size:14px;font-weight:bold;fill:#000000;" y="21"><tspan>Pflegetage in baselstädtischen Spitälern nach Hauptbereich</tspan></text><g class="highcharts-legend" transform="translate(365,154)"><rect fill="none" class="highcharts-legend-box" rx="0" ry="0" x="0" y="0" width="109" height="87" visibility="visible"></rect><g><g><g class="highcharts-legend-item highcharts-column-series highcharts-color-undefined highcharts-series-3" transform="translate(8,3)"><text x="21" style="color:#333333;font-size:12px;font-weight:normal;cursor:pointer;fill:#333333;" text-anchor="start" y="15"><tspan>Rehabilitation</tspan></text><rect x="2" y="4" width="12" height="12" fill="#662673" class="highcharts-point"></rect></g><g class="highcharts-legend-item highcharts-column-series highcharts-color-undefined highcharts-series-2" transform="translate(8,22)"><text x="21" y="15" style="color:#333333;font-size:12px;font-weight:normal;cursor:pointer;fill:#333333;" text-anchor="start"><tspan>Psychiatrie</tspan></text><rect x="2" y="4" width="12" height="12" fill="#68AB2B" class="highcharts-point"></rect></g><g class="highcharts-legend-item highcharts-column-series highcharts-color-undefined highcharts-series-1" transform="translate(8,41)"><text x="21" y="15" style="color:#333333;font-size:12px;font-weight:normal;cursor:pointer;fill:#333333;" text-anchor="start"><tspan>Geriatrie</tspan></text><rect x="2" y="4" width="12" height="12" fill="#D3E2E4" class="highcharts-point"></rect></g><g class="highcharts-legend-item highcharts-column-series highcharts-color-undefined highcharts-series-0" transform="translate(8,60)"><text x="21" y="15" style="color:#333333;font-size:12px;font-weight:normal;cursor:pointer;fill:#333333;" text-anchor="start"><tspan>Akutsomatik</tspan></text><rect x="2" y="4" width="12" height="12" fill="#246370" class="highcharts-point"></rect></g></g></g></g><g class="highcharts-axis-labels highcharts-xaxis-labels "><text x="91.4375" style="color:#000000;cursor:default;font-size:11px;fill:#000000;" text-anchor="middle" transform="translate(0,0)" y="359" opacity="1">2008</text><text x="126.3125" style="color:#000000;cursor:default;font-size:11px;fill:#000000;" text-anchor="middle" transform="translate(0,0)" y="359" opacity="1">2009</text><text x="161.1875" style="color:#000000;cursor:default;font-size:11px;fill:#000000;" text-anchor="middle" transform="translate(0,0)" y="359" opacity="1">2010</text><text x="196.0625" style="color:#000000;cursor:default;font-size:11px;fill:#000000;" text-anchor="middle" transform="translate(0,0)" y="359" opacity="1">2011</text><text x="230.9375" style="color:#000000;cursor:default;font-size:11px;fill:#000000;" text-anchor="middle" transform="translate(0,0)" y="359" opacity="1">2012</text><text x="265.8125" style="color:#000000;cursor:default;font-size:11px;fill:#000000;" text-anchor="middle" transform="translate(0,0)" y="359" opacity="1">2013</text><text x="300.6875" style="color:#000000;cursor:default;font-size:11px;fill:#000000;" text-anchor="middle" transform="translate(0,0)" y="359" opacity="1">2014</text><text x="335.5625" style="color:#000000;cursor:default;font-size:11px;fill:#000000;" text-anchor="middle" transform="translate(0,0)" y="359" opacity="1">2015</text></g><g class="highcharts-axis-labels highcharts-yaxis-labels "><text x="59" style="color:#000000;cursor:default;font-size:11px;fill:#000000;" text-anchor="end" transform="translate(0,0)" y="345" opacity="1"><tspan>0</tspan></text><text x="59" style="color:#000000;cursor:default;font-size:11px;fill:#000000;" text-anchor="end" transform="translate(0,0)" y="278" opacity="1"><tspan>250 000</tspan></text><text x="59" style="color:#000000;cursor:default;font-size:11px;fill:#000000;" text-anchor="end" transform="translate(0,0)" y="212" opacity="1"><tspan>500 000</tspan></text><text x="59" style="color:#000000;cursor:default;font-size:11px;fill:#000000;" text-anchor="end" transform="translate(0,0)" y="146" opacity="1"><tspan>750 000</tspan></text><text x="59" style="color:#000000;cursor:default;font-size:11px;fill:#000000;" text-anchor="end" transform="translate(0,0)" y="80" opacity="1"><tspan>1 000 000</tspan></text></g><text x="10" class="highcharts-credits" text-anchor="start" style="cursor:default;color:#000000;font-size:10px;fill:#000000;" y="390"><tspan>Quelle: Statistisches Amt Basel-Stadt, kantonale Gesundheitsstatistik;</tspan><tspan x="10" dy="13">Bundesamt für Statistik BFS, medizinische Statistik der Krankenhäuser</tspan></text></svg>

<svg class="highcharts-root" xmlns="http://www.w3.org/2000/svg" width="485" height="415" font-family="arial" font-size="12">
    <defs>
        <clipPath id="a">
            <path fill="none" d="M0 0h279v265H0z"/>
        </clipPath>
    </defs>
    <rect fill="#fbfbfb" class="highcharts-background" width="485" height="415" rx="0" ry="0"/>
    <path fill="none" class="highcharts-plot-background" d="M74 75h279v265H74z"/>
    <g class="highcharts-grid highcharts-xaxis-grid">
        <path fill="none" class="highcharts-grid-line" d="M108.5 75v265m35-265v265m35-265v265m35-265v265m34-265v265m35-265v265m35-265v265m35-265v265M73.5 75v265"/>
    </g>
    <g class="highcharts-grid highcharts-yaxis-grid">
        <path fill="none" stroke="#B9CFD7" stroke-width=".5" class="highcharts-grid-line" d="M74 340.25h279m-279-66h279m-279-66h279m-279-67h279M74 74.75h279"/>
    </g>
    <path fill="none" class="highcharts-plot-border" d="M74 75h279v265H74z"/>
    <g class="highcharts-axis highcharts-xaxis">
        <path fill="none" class="highcharts-tick" stroke="#FFF" d="M108.5 340v10m35-10v10m35-10v10m35-10v10m34-10v10m35-10v10m35-10v10m36-10v10m-280-10v10"/>
        <path fill="none" class="highcharts-axis-line" stroke="#B9CFD7" stroke-width=".5" d="M74 340.25h279"/>
    </g>
    <g class="highcharts-axis highcharts-yaxis">
        <path fill="none" class="highcharts-axis-line" d="M74 75v265"/>
    </g>
    <g class="highcharts-series-group">
        <g class="highcharts-series highcharts-series-0 highcharts-column-series highcharts-color-undefined" transform="translate(74 75)" clip-path="url(#a)">
            <path fill="#246370" class="highcharts-point" d="M5 148h25v118H5zm35 4h25v114H40zm35 3h25v111H75zm35 0h25v111h-25zm34 1h25v110h-25zm35-5h25v115h-25zm35-2h25v117h-25zm35 2h25v115h-25z"/>
        </g>
        <g class="highcharts-series highcharts-series-1 highcharts-column-series highcharts-color-undefined" transform="translate(74 75)" clip-path="url(#a)">
            <path fill="#D3E2E4" class="highcharts-point" d="M5 111h25v37H5zm35 4h25v37H40zm35 5h25v35H75zm35-1h25v36h-25zm34 8h25v29h-25zm35-3h25v27h-25zm35 1h25v24h-25zm35 3h25v23h-25z"/>
        </g>
        <g class="highcharts-series highcharts-series-2 highcharts-column-series highcharts-color-undefined" transform="translate(74 75)" clip-path="url(#a)">
            <path fill="#68AB2B" class="highcharts-point" d="M5 79h25v32H5zm35 0h25v36H40zm35 5h25v36H75zm35-6h25v41h-25zm34 13h25v36h-25zm35-3h25v36h-25zm35 1h25v36h-25zm35 5h25v34h-25z"/>
        </g>
        <g class="highcharts-series highcharts-series-3 highcharts-column-series highcharts-color-undefined" transform="translate(74 75)" clip-path="url(#a)">
            <path fill="#662673" class="highcharts-point" d="M5 58h25v21H5zm35 2h25v19H40zm35 5h25v19H75zm35-6h25v19h-25zm34 9h25v23h-25zm35-5h25v25h-25zm35 1h25v25h-25zm35 4h25v26h-25z"/>
        </g>
    </g>
    <text x="10" class="highcharts-title" y="21" color="#000" font-size="14" font-weight="700">
        <tspan>Pflegetage in baselstädtischen Spitälern nach Hauptbereich</tspan>
    </text>
    <g class="highcharts-legend" transform="translate(365 154)">
        <rect fill="none" class="highcharts-legend-box" rx="0" ry="0" width="109" height="87"/>
        <g class="highcharts-legend-item highcharts-column-series highcharts-color-undefined highcharts-series-3">
            <text x="21" y="15" color="#333" font-weight="400" cursor="pointer" fill="#333" transform="translate(8 3)">
                <tspan>Rehabilitation</tspan>
            </text>
            <path fill="#662673" class="highcharts-point" d="M10 7h12v12H10z"/>
        </g>
        <g class="highcharts-legend-item highcharts-column-series highcharts-color-undefined highcharts-series-2">
            <text x="21" y="15" color="#333" font-weight="400" cursor="pointer" fill="#333" transform="translate(8 22)">
                <tspan>Psychiatrie</tspan>
            </text>
            <path fill="#68AB2B" class="highcharts-point" d="M10 26h12v12H10z"/>
        </g>
        <g class="highcharts-legend-item highcharts-column-series highcharts-color-undefined highcharts-series-1">
            <text x="21" y="15" color="#333" font-weight="400" cursor="pointer" fill="#333" transform="translate(8 41)">
                <tspan>Geriatrie</tspan>
            </text>
            <path fill="#D3E2E4" class="highcharts-point" d="M10 45h12v12H10z"/>
        </g>
        <g class="highcharts-legend-item highcharts-column-series highcharts-color-undefined highcharts-series-0">
            <text x="21" y="15" color="#333" font-weight="400" cursor="pointer" fill="#333" transform="translate(8 60)">
                <tspan>Akutsomatik</tspan>
            </text>
            <path fill="#246370" class="highcharts-point" d="M10 64h12v12H10z"/>
        </g>
    </g>
    <g class="highcharts-axis-labels highcharts-xaxis-labels" text-anchor="middle" color="#000" cursor="default" font-size="11">
        <text x="91.438" y="359">
            2008
        </text>
        <text x="126.313" y="359">
            2009
        </text>
        <text x="161.188" y="359">
            2010
        </text>
        <text x="196.063" y="359">
            2011
        </text>
        <text x="230.938" y="359">
            2012
        </text>
        <text x="265.813" y="359">
            2013
        </text>
        <text x="300.688" y="359">
            2014
        </text>
        <text x="335.563" y="359">
            2015
        </text>
    </g>
    <g class="highcharts-axis-labels highcharts-yaxis-labels" text-anchor="end" color="#000" cursor="default" font-size="11">
        <text x="59" y="345">
            <tspan>0</tspan>
        </text>
        <text x="59" y="278">
            <tspan>250 000</tspan>
        </text>
        <text x="59" y="212">
            <tspan>500 000</tspan>
        </text>
        <text x="59" y="146">
            <tspan>750 000</tspan>
        </text>
        <text x="59" y="80">
            <tspan>1 000 000</tspan>
        </text>
    </g>
    <text x="10" class="highcharts-credits" y="390" cursor="default" color="#000" font-size="10">
        <tspan>Quelle: Statistisches Amt Basel-Stadt, kantonale Gesundheitsstatistik;</tspan><tspan x="10" dy="13">Bundesamt für Statistik BFS, medizinische Statistik der Krankenhäuser</tspan>
    </text>
</svg>
